X:1
L:1/8
M:3/4
K:G
|:""G"" d3 e d2 |""^/F#"" B2 A2 G2 |""C"" E<G G4 |""D"" A4 GA |""G"" B3 d e2 |""^/F#"" d2 B2 A2 |""C"" e4 d2 | 
""Em"" B4 GA |""G"" B3 d e2 |""^/F#"" d2 B2 A2 |""C"" E<G G4 |""D"" A4 GA |""G"" B3 d e2 |""^/F#"" d2 B2 G2 | 
""C"" E5 |""D"" D5 ::""Em"" g3 a g2 |""D"" f2 e2 d2 |""Bm"" B2 e2 d2 |""Em"" B4 GA |""G"" B3 d e2 | 
""^/F#"" d2 B2 G2 |""C"" E5 |""D"" D2 e2 f2 |""Em"" g3 a g2 |""D"" f2 e2 d2 |""Bm"" B2 e2 d2 |""Em"" B4 GA | 
""G"" B3 d e2 |""D"" d2 B2 A2 |""C"" G2 E2""D"" D2 |""G"" G5 :|
